libs/ui/packages/crypto-icons/src/svg/FUN.svg

<svg width="24" height="24" viewBox="0 0 24 24" fill="none">
<path d="M9.594 20.1098C8.63578 19.8443 7.74232 19.3848 6.96899 18.7598C6.20701 18.1728 5.54801 17.4631 5.01899 16.6598C4.45489 15.8147 4.04834 14.8746 3.81899 13.8848C3.55643 12.6992 3.55643 11.4704 3.81899 10.2848C4.04276 9.28184 4.42237 8.32017 4.94399 7.43479C5.70765 6.20961 6.79875 5.22242 8.09399 4.58479C8.54885 4.33997 9.02601 4.13907 9.519 3.98479C10.269 4.88479 11.019 5.85979 11.769 6.83479C11.844 6.98479 11.994 7.05979 12.069 7.20979C11.3167 7.24133 10.5778 7.41967 9.894 7.73479C9.28944 8.05084 8.754 8.4843 8.31899 9.00979C7.89098 9.57559 7.56136 10.2095 7.34399 10.8848C7.14371 11.7013 7.16964 12.5569 7.41899 13.3598L10.644 10.8098C11.394 11.7848 12.144 12.6848 12.894 13.6598C11.844 14.4848 10.719 15.3098 9.669 16.2098C10.719 17.5598 11.844 18.9848 12.894 20.4098C11.7851 20.5409 10.6611 20.4387 9.594 20.1098ZM16.7415 11.0243C16.714 10.9015 16.6814 10.7799 16.644 10.6598C16.5427 10.7393 14.3115 12.4448 13.419 13.2098C12.669 12.2348 11.919 11.3348 11.169 10.3598C12.219 9.53479 13.344 8.70979 14.394 7.80979C13.344 6.45979 12.294 5.10979 11.169 3.68479C11.169 3.60979 11.094 3.60979 11.094 3.53479H12.144C14.0678 3.55275 15.9249 4.24252 17.394 5.48479C18.11 6.07642 18.7188 6.78677 19.194 7.58479C19.7536 8.44386 20.1125 9.41798 20.244 10.4348C20.4449 11.6038 20.4195 12.8004 20.169 13.9598C19.9543 14.9312 19.5462 15.8495 18.969 16.6598C18.4653 17.4377 17.8309 18.1228 17.094 18.6848C16.3763 19.3084 15.5319 19.769 14.619 20.0348C13.944 19.2098 13.344 18.4598 12.744 17.6348C12.5198 17.3782 12.319 17.1021 12.144 16.8098C12.8537 16.8122 13.5543 16.651 14.1917 16.3389C14.829 16.0267 15.3858 15.5719 15.819 15.0098C16.251 14.4572 16.558 13.8175 16.719 13.1348C16.8585 12.5655 16.866 11.862 16.7415 11.0243ZM13.1992 17.304C13.7172 18.0115 14.2549 18.7043 14.8117 19.3815C15.5241 19.124 16.1823 18.7361 16.7527 18.2378C17.4444 17.7091 18.0392 17.0645 18.5107 16.3328C19.0436 15.5851 19.4206 14.7377 19.6192 13.8413C19.8547 12.7523 19.878 11.628 19.6867 10.5068C19.5641 9.5665 19.2305 8.66608 18.711 7.87279C18.2676 7.12845 17.6992 6.46602 17.031 5.91454C15.6811 4.77251 13.9786 4.13094 12.2107 4.09804C12.906 4.98304 13.6102 5.88529 14.838 7.46479L15.168 7.88779L14.76 8.23654C14.2265 8.69026 13.6819 9.13065 13.1265 9.55729C13.074 9.59854 12.4365 10.0883 11.958 10.4588C12.1552 10.71 12.384 10.9965 12.7335 11.4338C13.0785 11.865 13.3072 12.1523 13.5045 12.4035C13.8525 12.1163 14.232 11.8148 14.6865 11.4623C14.76 11.4053 15.9585 10.4828 16.2967 10.2173L16.9387 9.71254L17.181 10.4925C17.4605 11.3914 17.4901 12.3494 17.2665 13.2638C17.0873 14.0245 16.7455 14.7373 16.2645 15.3533C15.4997 16.3458 14.4011 17.0277 13.1722 17.2725L13.1992 17.304Z" fill="#ED1968"/>
</svg>

<svg width="24" height="24" viewBox="0 0 24 24" fill="none"><path fill="#ed1968" d="M9.594 20.11a7.3 7.3 0 0 1-2.625-1.35 8.7 8.7 0 0 1-1.95-2.1 8.4 8.4 0 0 1-1.2-2.775 8.3 8.3 0 0 1 0-3.6 9.8 9.8 0 0 1 1.125-2.85 7.74 7.74 0 0 1 3.15-2.85 8 8 0 0 1 1.425-.6c.75.9 1.5 1.875 2.25 2.85.075.15.225.225.3.375a5.8 5.8 0 0 0-2.175.525A5.1 5.1 0 0 0 8.319 9.01a6.3 6.3 0 0 0-.975 1.875c-.2.816-.174 1.672.075 2.475l3.225-2.55c.75.975 1.5 1.875 2.25 2.85-1.05.825-2.175 1.65-3.225 2.55 1.05 1.35 2.175 2.775 3.225 4.2a8 8 0 0 1-3.3-.3m7.147-9.086a5 5 0 0 0-.097-.364c-.101.08-2.332 1.785-3.225 2.55-.75-.975-1.5-1.875-2.25-2.85 1.05-.825 2.175-1.65 3.225-2.55-1.05-1.35-2.1-2.7-3.225-4.125 0-.075-.075-.075-.075-.15h1.05a8.25 8.25 0 0 1 5.25 1.95 8.1 8.1 0 0 1 1.8 2.1c.56.859.919 1.833 1.05 2.85a9.3 9.3 0 0 1-.075 3.525 7.4 7.4 0 0 1-1.2 2.7 8 8 0 0 1-1.875 2.025 6.6 6.6 0 0 1-2.475 1.35 52 52 0 0 1-1.875-2.4 5.7 5.7 0 0 1-.6-.825 4.62 4.62 0 0 0 3.675-1.8 4.85 4.85 0 0 0 .9-1.875q.21-.855.022-2.11m-3.542 6.28q.777 1.061 1.613 2.078a6.1 6.1 0 0 0 1.94-1.144 7.5 7.5 0 0 0 1.759-1.905 6.8 6.8 0 0 0 1.108-2.492 8.8 8.8 0 0 0 .068-3.334 6.3 6.3 0 0 0-.976-2.634 7.6 7.6 0 0 0-1.68-1.958 7.7 7.7 0 0 0-4.82-1.817c.695.885 1.4 1.787 2.627 3.367l.33.423-.408.349a42 42 0 0 1-1.633 1.32c-.053.042-.69.531-1.169.902.197.251.426.537.775.975.345.431.574.718.771.97.348-.288.728-.59 1.183-.942.073-.057 1.272-.98 1.61-1.245l.642-.504.242.78c.28.898.31 1.856.085 2.77a5.4 5.4 0 0 1-1.001 2.09 5.18 5.18 0 0 1-3.093 1.92z"/></svg>
